X:1
T:Title
%%score { 1 | 2 }
L:1/8
M:3/4
K:G
V:1 treble nm="Grand Piano"
V:2 bass 
V:1
 z2 z2[Q:1/4=96] [DB]>[DB] | [DB]3 [B,G] [CA][Ec] | [DB]2 G2 B>B | [Fd]3 [FA] [GB][Ac] | %4
[M:2/4] B4 |[M:1/4] B>B |[M:3/4] [DB]3 [B,G] [CA][Ec] | [DB]2 [DG]2 [DF]E | D3 B DA | %9
[M:2/4] [B,G]4 |[M:1/4] c>^G |[M:3/4] B3 A B>F | A2 [B,G]2 [DF]>E | D3 A D>[Ec] |[M:2/4] [DB]4 | %15
[M:1/4] c>^G |[M:3/4] B3 A B>F | [CA]2 [B,G]2 [DF]>E | D3 B DA |[M:2/4] [B,G]4 |] %20
V:2
 z2 z2 [G,,G,]>[G,,G,] | [G,,G,]3 [G,,G,] [G,,G,][G,,G,] | %2
 [G,,G,]2[K:treble] [G,B,D]2 [G,DG]>[G,DG] | [D,D]3 [D,D] [D,D][D,D] |[M:2/4][K:treble] [G,DG]4 | %5
[M:1/4] [G,D]>[K:bass][G,D] |[M:3/4] [G,,G,]3 [G,,G,] [G,,G,][G,,G,] | %7
 [G,,G,]2 [B,,G,]2 [C,G,][C,G,C] | [D,G,B,]3 [D,G,D] [D,F,C][D,F,C] |[M:2/4] [G,,G,]4 | %10
[M:1/4] [D,F,D]>[D,=F,D] |[M:3/4] [D,F,D]3 [D,F,C] [D,F,D]>[D,A,] | %12
 [G,C]2 [G,,G,]2 [C,G,]>[C,G,C] | [D,G,B,]3 [D,F,C] [D,F,C]>[C,F,] |[M:2/4] [G,,G,]4 | %15
[M:1/4] [D,F,D]>[D,=F,D] |[M:3/4] [D,F,D]3 [D,F,C] [D,F,D]>[D,A,] | %17
 [G,,G,]2 [G,,G,]2 [C,G,]>[C,G,C] | [D,G,B,]3 [D,G,D] [D,F,C][D,F,C] |[M:2/4] [G,,G,]4 |] %20

